svg/black/gmr.svg

<svg width="32" height="32" viewBox="0 0 32 32" version="1.1" xmlns="http://www.w3.org/2000/svg" xmlns:xlink="http://www.w3.org/1999/xlink"><title>svg/black/gmr</title><desc>Created with Sketch.</desc><g id="black/gmr" stroke="none" stroke-width="1" fill="none" fill-rule="evenodd"><path d="M16,32 C7.163444,32 0,24.836556 0,16 C0,7.163444 7.163444,0 16,0 C24.836556,0 32,7.163444 32,16 C32,24.836556 24.836556,32 16,32 Z M26.9494,13.44 C26.9000904,13.3632523 26.8233851,13.3081818 26.7349,13.286 C26.38895,13.20185 26.04245,13.121 25.6954,13.04675 L25.7889,12.582 L25.8494,12.2905 L25.8769,12.142 L25.9044,11.9825 C25.9422867,11.7451733 25.9156924,11.5020259 25.8274,11.2785 C25.6897434,10.9251441 25.4221177,10.6378401 25.0794,10.4755 C24.9568498,10.4190212 24.827408,10.3788942 24.6944,10.35615 C24.6110014,9.85199811 24.4958218,9.35362132 24.34955,8.864 L24.33305,8.8035 L21.84705,5.784 L21.75355,5.7565 C21.6529,5.7301 19.41275,5.06845 16.36355,5.06625 L16.3982,4.46455 C16.976891,4.27385514 17.3302468,3.68984579 17.2306346,3.08874249 C17.1310224,2.4876392 16.6081698,2.04883124 15.9989,2.055 C15.3900733,2.04912272 14.8676735,2.48754627 14.7678452,3.08816158 C14.6680169,3.6887769 15.0205064,4.27261584 15.5985,4.464 L15.63315,5.069 C12.57075,5.07175 10.31905,5.7301 10.2239,5.762 L10.1304,5.7895 L7.6444,8.809 L7.6279,8.8695 C7.48192787,9.35823265 7.36693283,9.85568722 7.2836,10.3589 L7.2759,10.3589 L7.0999,10.4029 C7.03551225,10.4209675 6.97291686,10.444901 6.9129,10.4744 C6.33705797,10.7413323 6.00249336,11.3524703 6.0879,11.9814 L6.1154,12.1409 L6.1429,12.2894 L6.2034,12.5809 L6.2969,13.04675 C5.9515,13.12265 5.60665,13.2013 5.2629,13.2849 C5.1743673,13.3069791 5.09762746,13.3620743 5.0484,13.4389 C4.97790596,13.5569653 4.98522361,13.7058189 5.06695796,13.8164006 C5.14869232,13.9269824 5.28884784,13.9776514 5.4224,13.9449 C5.7579,13.86295 6.09395,13.78595 6.43055,13.7117 L6.4564,13.83985 C5.67088813,16.3308875 5.85152484,19.0263014 6.9624,21.39025 C8.4694,24.60775 11.9399,28.07825 15.9989,28.07825 C20.0579,28.07825 23.5284,24.60775 25.0409,21.38475 C26.1480363,19.0187842 26.3247359,16.3229375 25.5359,13.8327 L25.55955,13.715 C25.8978,13.78925 26.23605,13.8668 26.5732,13.9493 C26.7067522,13.9820514 26.8469077,13.9313824 26.928642,13.8208006 C27.0103764,13.7102189 27.017694,13.5613653 26.9472,13.4433 L26.9494,13.44 Z M15.1134,3.298 C15.1151429,2.76231177 15.5457657,2.32679558 16.0814,2.319 C16.6204,2.319 16.6204,4.2715 16.0814,4.277 C15.5457657,4.26920442 15.1151429,3.83368823 15.1134,3.298 Z M15.7613,4.508 C15.8396053,4.52303706 15.919164,4.53058776 15.9989,4.53055 L16.0374,4.53055 L16.11275,6.6332 C16.1566268,6.69176839 16.1803604,6.76296921 16.1804,6.83615 C16.1804,6.92658882 16.1444733,7.01332351 16.0805234,7.07727341 C16.0165735,7.14122332 15.9298388,7.17715 15.8394,7.17715 C15.3334,7.17715 14.9264,7.02315 14.9264,6.83615 C14.9264,6.66455 15.2685,6.52155 15.71565,6.49845 C15.75635,6.49845 15.7976,6.49515 15.8394,6.49515 C15.85095,6.49515 15.86195,6.49515 15.8735,6.49515 L15.7613,4.508 Z M8.15645,9.34525 L8.4474,9.2413 L8.9424,9.0763 L9.5914,8.8838 C9.8279,8.8123 10.0919,8.7463 10.3669,8.6748 L11.2414,8.4768 C11.5439,8.4163 11.8574,8.3503 12.1819,8.2953 C12.5064,8.2403 12.8309,8.1963 13.1609,8.1413 C13.4909,8.0863 13.8209,8.0588 14.1454,8.0203 C14.4699,7.9818 14.7889,7.9653 15.1024,7.9378 C15.2674,7.92295 15.4357,7.9158 15.5974,7.9103 L15.6139,7.9103 L15.9989,11.33735 L16.3894,7.8806 C16.5346,7.8806 16.67485,7.8806 16.8074,7.8806 C17.0549,7.8806 17.2859,7.8696 17.4894,7.8806 L18.0174,7.9026 L18.4794,7.9191 L18.0229,7.8751 L17.4949,7.8256 C17.2914,7.8036 17.0659,7.7981 16.8129,7.7816 C16.5599,7.7651 16.2904,7.7486 16.0044,7.7486 L15.9989,7.7486 C15.71455,7.7486 15.4082,7.7321 15.0969,7.7431 C14.7856,7.7541 14.4589,7.7486 14.1289,7.7706 L13.1279,7.8366 C12.7924,7.8641 12.4569,7.8916 12.1269,7.9356 C11.7969,7.9796 11.4724,8.0291 11.1644,8.0676 C10.86685,8.105 10.5748,8.1622 10.2976,8.2106 L9.8059,8.1721 L10.7849,6.8356 L15.67385,5.77025 L15.7041,6.30045 C15.0441,6.3516 14.5491,6.57105 14.5491,6.83395 C14.5491,7.1348 15.1992,7.37845 16.0011,7.37845 C16.803,7.37845 17.4531,7.1348 17.4531,6.83395 C17.4531,6.57105 16.9581,6.3516 16.2981,6.30045 L16.32835,5.77245 L21.1964,6.8345 L22.1754,8.171 L20.81415,8.281 L20.7894,8.2777 L20.8037,8.28155 L20.7839,8.28155 L23.3909,9.57405 C23.3909,9.57405 24.5151,13.1837 22.96575,16.25215 C22.7891633,16.5988347 22.5836516,16.9300084 22.3514,17.24215 C22.3514,17.24215 19.9446,18.35315 16.2464,18.54895 L15.9989,17.532 C16.3015193,17.54215 16.602976,17.4897227 16.8844,17.378 L17.6544,17.125 C19.2178667,16.6428333 20.7835333,16.168 22.3514,15.7005 L22.5054,15.6565 L22.5549,15.5135 L22.6044,15.3705 L22.6429,15.233 L22.7144,14.9635 C22.8404229,14.4330156 22.9304612,13.894623 22.9839,13.352 L23.0279,12.802 L23.0389,12.527 L23.0389,12.2465 L23.0444,11.9605 L23.0169,11.6745 L22.9729,11.3885 C22.9542371,11.2955663 22.9303661,11.2037549 22.9014,11.1135 L22.8574,10.9705 L22.8079,10.8 L22.7716,10.79505 L22.7584,10.7505 L22.7089,10.58 L22.5109,10.5525 C20.8873,10.3633 19.2574667,10.2514667 17.6214,10.217 L17.4509,10.2115 L17.3794,10.3545 L16.4829,12.1112 L15.9989,12.11945 L15.4687,12.1288 L14.5084,10.4095 L14.4589,10.316 L14.3599,10.3215 C13.5459,10.3673333 12.7337333,10.4333333 11.9234,10.5195 C11.1130667,10.6056667 10.3082333,10.7175 9.5089,10.855 L9.5254,10.855 L9.5144,10.855 L9.4814,10.965 C9.4726,10.99305 9.46435,11.02 9.45665,11.05135 C9.4726,10.9859 9.4924,10.9221 9.51165,10.855 C9.480028,10.9432272 9.44329927,11.0295397 9.40165,11.1135 C9.38405,11.18335 9.3637,11.25265 9.3505,11.3225 L9.34115,11.35 L9.28065,11.6195 L9.23665,11.889 L9.20915,12.164 C9.19815,12.3455 9.19265,12.5325 9.19815,12.714 L9.22015,13.264 C9.25681894,13.8146313 9.33031668,14.3621894 9.44015,14.903 L9.50065,15.1725 L9.57765,15.4475 L9.59965,15.5135 L9.67665,15.541 L12.78965,16.564 C13.7063167,16.8624667 14.62115,17.1686333 15.53415,17.4825 C15.6120727,17.4992551 15.6911172,17.5102845 15.77065,17.5155 L15.82565,17.521 L15.84215,17.521 L15.86965,17.5265 L15.98515,17.532 L16.00165,17.532 L15.7481,18.5671 C14.8405355,18.5936236 13.9322073,18.5609209 13.0289,18.4692 C10.80635,18.17055 9.3439,17.63815 8.96385,17.488 C7.73094764,14.9572627 7.44454273,12.0688262 8.15645,9.34525 Z M19.95615,10.87535 L17.01475,16.4199 L16.8184,16.7895 L16.6754,16.839 C16.5040236,16.901151 16.3240599,16.9364017 16.1419,16.9435 C15.8629664,16.9715096 15.5812874,16.9377082 15.3169,16.8445 L15.2179,16.806 L15.34275,16.57115 L18.42275,10.77085 L18.5619,10.5085 C19.0624,10.5305 19.5739,10.569 20.0964,10.613 L19.95615,10.87535 Z M20.8598,10.965 L21.0039,10.6933 L21.4274,10.7318 L21.8289,10.7758 L21.8784,10.7813 L21.9114,10.7813 L21.7629,11.06125 L19.3231,15.65925 L19.1229,16.036 L17.9789,16.399 L18.17635,16.0261 L20.8598,10.965 Z M6.5114,12.2355 L6.4949,12.087 L6.4839,11.944 C6.4525775,11.4782088 6.75287695,11.0545269 7.20275,10.9298 C7.01062175,12.5658516 7.15378231,14.2238942 7.6235,15.8028 C7.60865,15.79785 7.59325,15.794 7.5784,15.7885 C7.24944621,15.6722112 6.99068878,15.4134538 6.8744,15.0845 C6.83057996,14.9470077 6.80289408,14.8048869 6.7919,14.661 L6.5444,12.53525 L6.5114,12.2355 Z M9.2647,23.68815 L9.2504,23.6755 L9.257,23.6865 C9.21322546,23.6747538 9.17201096,23.6549858 9.13545,23.6282 C9.12549404,23.6208636 9.11611644,23.6127731 9.1074,23.604 C8.49046198,22.8388807 7.96615558,22.0034982 7.5454,21.11525 C6.68119396,19.272443 6.41503445,17.205476 6.7842,15.20385 L6.78915,15.21375 C6.84270134,15.3152951 6.91028111,15.4087958 6.9899,15.4915 C7.16411535,15.6765461 7.39044562,15.8042885 7.6389,15.8578 C7.85177649,16.5596925 8.12790883,17.2408189 8.4639,17.8928 L8.5134,17.9808 L8.6069,18.0248 C8.95891436,18.1690877 9.31796869,18.2955644 9.6827,18.40375 L9.6915,18.40375 L9.66565,18.412 C9.631,18.42355 9.5969,18.43565 9.5628,18.4483 C9.51715,18.46535 9.47205,18.48295 9.42695,18.5033 C9.36131667,18.5304333 9.29586667,18.5592167 9.2306,18.58965 L8.8071,18.79315 L8.6696,18.85915 L8.6531,18.99665 C8.53345625,20.0428113 8.63769589,21.1024559 8.9589,22.10525 C9.11391829,22.6039593 9.33201729,23.0808198 9.6079,23.52425 L9.6134,23.53525 L9.6299,23.57925 C9.6541,23.69035 9.43905,23.7349 9.2647,23.68815 Z M13.04485,25.90025 C12.2708165,25.6168462 11.5633431,25.1772728 10.9664,24.60885 C10.625784,24.2761386 10.3349545,23.8960226 10.1029,23.48025 C9.87258799,23.0639685 9.69521302,22.6205311 9.5749,22.16025 C9.457074,21.6991527 9.38522305,21.2275157 9.3604,20.75225 C9.33043792,20.3354967 9.34333888,19.9167684 9.3989,19.50265 L9.6574,19.39925 C9.92213333,19.3119833 10.1898,19.2349833 10.4604,19.16825 L10.8729,19.08575 C11.2300333,19.0256167 11.5893667,18.9832667 11.9509,18.9587 L11.9938,18.9587 L12.00975,18.96145 C11.7006733,19.8034889 11.5447663,20.6940404 11.5494,21.591 C11.5494,23.3807 12.14065,24.90365 13.0773,25.9195 L13.04485,25.90025 Z M17.34475,24.7568 C16.9309803,24.9911992 16.4628882,25.1127742 15.98735,25.10935 C15.4917068,25.1116846 15.0048448,24.9785582 14.57935,24.72435 C14.3770567,24.5055357 14.2046864,24.2608511 14.06675,23.9967 C14.5382585,24.5436799 15.2205938,24.8637045 15.9426348,24.8765156 C16.6646758,24.8893267 17.3579344,24.5937091 17.84855,24.0638 C17.7117374,24.3163982 17.542357,24.5499434 17.34475,24.75845 L17.34475,24.7568 Z M15.98735,24.33935 C15.4672813,24.3416888 14.9676004,24.1372575 14.5983085,23.7710602 C14.2290165,23.4048629 14.0203877,22.90692 14.01835,22.38685 L14.01835,22.38025 C14.0168418,21.2980771 14.8923547,20.4192963 15.9745257,20.4167727 C17.0566967,20.4142491 17.9362986,21.2889371 17.9398376,22.3711052 C17.9433766,23.4532733 17.0695143,24.3336956 15.98735,24.33825 L15.98735,24.33935 Z M18.4739,21.99965 C18.265458,20.7706508 17.1906629,19.878121 15.944288,19.899013 C14.697913,19.9199051 13.6536349,20.8479553 13.4865,22.08325 C13.45735,21.86325 13.4381,21.6328 13.4315,21.3996 C13.8432299,20.3488298 14.8593628,19.6599668 15.9879,19.66655 L15.9989,19.66655 C17.1038879,19.6643963 18.1010822,20.328903 18.5245,21.34955 C18.5175333,21.5710167 18.5006667,21.7877167 18.4739,21.99965 Z M18.9062,25.9305 L18.91555,25.9305 L18.8963,25.9371 C19.8456,24.92125 20.4462,23.3884 20.4462,21.5844 C20.4515189,20.6869282 20.2952089,19.7958303 19.98475,18.95375 L19.99905,18.95375 C21.41365,19.15835 22.1512,19.8838 22.1512,19.8838 C22.1512,19.8838 22.3019,24.03025 18.9084,25.9305 L18.9062,25.9305 Z M25.3687,16.99025 C25.3687,17.06175 25.3687,17.1327 25.3687,17.2042 C25.3687,17.2526 25.3654,17.301 25.36375,17.3494 C25.3621,17.3978 25.3599,17.4473 25.35715,17.4968 C25.35385,17.5569333 25.35,17.6168833 25.3456,17.67665 C25.3456,17.7113 25.3401,17.74595 25.33735,17.78005 C25.3313,17.851 25.32525,17.9225 25.31755,17.99345 C25.31755,18.0094 25.3137,18.02535 25.31205,18.0413 C25.30435,18.1098667 25.2959167,18.1784333 25.28675,18.247 L25.28675,18.25745 C25.27795,18.3230833 25.2686,18.3889 25.2587,18.4549 L25.2587,18.46205 C25.1299848,19.2967865 24.8931445,20.1112139 24.55415,20.8848 C24.5206,20.96125 24.48705,21.0377 24.45185,21.11305 C24.4030833,21.21645 24.35285,21.3191167 24.30115,21.42105 L24.26705,21.4876 C24.2324,21.55525 24.19665,21.6229 24.16035,21.69 C23.7974503,22.3663885 23.3720988,23.0073618 22.88985,23.60455 C22.8839375,23.6105756 22.8776946,23.6162677 22.87115,23.6216 C22.8344624,23.6516241 22.7919524,23.6737218 22.7463,23.6865 L22.75235,23.67605 L22.7375,23.68925 C22.5637,23.7382 22.3426,23.69585 22.36735,23.57925 L22.38385,23.53525 L22.39485,23.52425 C22.6668122,23.0793983 22.8831144,22.6028314 23.0389,22.10525 C23.3548159,21.1036316 23.4578531,20.0470321 23.3414,19.00325 L23.3249,18.86575 L23.1874,18.79975 C23.0444,18.72825 22.9069,18.65675 22.7639,18.59625 L22.3294,18.42025 L22.29035,18.40595 L22.2997,18.4032 C22.6628143,18.295622 23.019751,18.1681971 23.3689,18.0215 L23.4624,17.9775 L23.5119,17.8895 C23.8467637,17.2384817 24.1219714,16.5584702 24.33415,15.8578 C24.7085716,15.7813057 25.0289319,15.5408841 25.207,15.20275 C25.3118736,15.7651477 25.3670862,16.3356787 25.372,16.90775 C25.3698,16.93525 25.36925,16.96165 25.3687,16.99025 Z M9.64620769,11.135112 L9.87697692,10.855 L9.9539,10.855 L9.83851538,10.855 C9.72313077,11.0258683 9.58082308,11.1883333 9.4539,11.355 C9.52697692,11.2807703 9.58466923,11.2121429 9.64620769,11.135112 Z M16.9504,6.21025 C17.4344,6.33675 17.7534,6.56775 17.7534,6.83725 C17.7534,7.10675 17.4289,7.33775 16.9504,7.46425 C17.6104,7.40375 18.1054,7.14525 18.1054,6.83725 C18.1054,6.52925 17.6104,6.268 16.9504,6.21025 Z M15.358683,8.68189695 C15.4963555,8.68352113 15.6097996,8.572215 15.6134,8.43198044 C15.6131843,8.3640841 15.5859684,8.29917609 15.5379678,8.25208011 C15.4899672,8.20498414 15.4252813,8.1797223 15.358683,8.18206393 C15.2232169,8.18206393 15.1134,8.29395536 15.1134,8.43198044 C15.1134,8.57000552 15.2232169,8.68189695 15.358683,8.68189695 Z M8.7139,9.52406389 C8.57877704,9.52244013 8.46743373,9.63371691 8.4639,9.7739145 C8.46411168,9.84179293 8.49082362,9.90668384 8.53793533,9.95376739 C8.58504703,10.0008509 8.64853507,10.0261061 8.7139,10.0237651 C8.84902296,10.0253889 8.96036627,9.91411209 8.9639,9.7739145 C8.96368832,9.70603607 8.93697638,9.64114517 8.88986467,9.59406161 C8.84275297,9.54697805 8.77926493,9.52172288 8.7139,9.52406389 Z M9.4069,17.597397 C9.54202296,17.5990211 9.65336627,17.487715 9.6569,17.3474804 C9.65668832,17.2795841 9.62997638,17.2146761 9.58286467,17.1675801 C9.53575297,17.1204841 9.47226493,17.0952223 9.4069,17.0975639 C9.27177704,17.0959397 9.16043373,17.2072459 9.1569,17.3474804 C9.16188273,17.487047 9.27236541,17.5974928 9.4069,17.597397 Z M15.4789,18.554397 C15.614023,18.5560211 15.7253663,18.444715 15.7289,18.3044804 C15.7286883,18.2365841 15.7019764,18.1716761 15.6548647,18.1245801 C15.607753,18.0774841 15.5442649,18.0522223 15.4789,18.0545639 C15.3426168,18.0545397 15.2314238,18.1678332 15.2289,18.3092865 C15.2405405,18.4448612 15.3478514,18.5500733 15.4789,18.554397 Z M16.843683,8.68739695 C16.9813555,8.68902113 17.0947996,8.577715 17.0984,8.43748044 C17.0981843,8.3695841 17.0709684,8.30467609 17.0229678,8.25758011 C16.9749672,8.21048414 16.9102813,8.1852223 16.843683,8.18756393 C16.7082169,8.18756393 16.5984,8.29945536 16.5984,8.43748044 C16.5984,8.57550552 16.7082169,8.68739695 16.843683,8.68739695 Z M16.7219,18.0600639 C16.5873654,18.0599681 16.4768827,18.1704139 16.4719,18.3099804 C16.481309,18.4474446 16.5892222,18.5553217 16.7219,18.559897 C16.857023,18.5615211 16.9683663,18.450215 16.9719,18.3099804 C16.9716883,18.2420841 16.9449764,18.1771761 16.8978647,18.1300801 C16.850753,18.0829841 16.7872649,18.0577223 16.7219,18.0600639 Z M9.94487678,19.743339 C9.85752157,19.7359703 9.77349904,19.7804456 9.72663702,19.8588589 C9.67977499,19.9372722 9.67778452,20.0367207 9.72146698,20.1171662 C9.76514944,20.1976116 9.84731696,20.2458168 9.93488857,20.2423741 L9.94487678,20.2423741 C10.0773866,20.2439988 10.1865767,20.1326563 10.1900421,19.9923758 C10.1903325,19.927975 10.1664952,19.8660801 10.1237567,19.8202616 C10.0763388,19.7701687 10.0118506,19.7424372 9.94487678,19.743339 Z M11.453683,19.2920639 C11.3182169,19.2920639 11.2084,19.4039554 11.2084,19.5419804 C11.2084,19.6800055 11.3182169,19.791897 11.453683,19.791897 C11.5913555,19.7935211 11.7047996,19.682215 11.7084,19.5419804 C11.7081843,19.4740841 11.6809684,19.4091761 11.6329678,19.3620801 C11.5849672,19.3149841 11.5202813,19.2897223 11.453683,19.2920639 Z M20.7492845,19.292064 C20.6125893,19.2973258 20.505507,19.4114842 20.5089814,19.5482465 C20.5124557,19.6850088 20.6251965,19.793582 20.7619825,19.7918951 C20.8987685,19.7902083 21.0087979,19.6788879 21.0088991,19.5420815 C21.0086793,19.4741578 20.9809401,19.4092235 20.9320165,19.3621085 C20.883093,19.3149935 20.8171633,19.2897214 20.7492845,19.292064 Z" id="Combined-Shape-Copy" fill="#000" fill-rule="nonzero"/></g></svg>

<svg width="32" height="32" viewBox="0 0 32 32" xmlns="http://www.w3.org/2000/svg"><path d="M16 32C7.163 32 0 24.837 0 16S7.163 0 16 0s16 7.163 16 16-7.163 16-16 16zm10.95-18.56a.359.359 0 0 0-.215-.154 38.333 38.333 0 0 0-1.04-.24l.094-.464.06-.292.028-.148.027-.16a1.34 1.34 0 0 0-.077-.704 1.485 1.485 0 0 0-1.133-.922 12.127 12.127 0 0 0-.344-1.492l-.017-.06-2.486-3.02-.093-.027c-.101-.027-2.341-.689-5.39-.69l.034-.602a1.236 1.236 0 0 0-.4-2.41 1.236 1.236 0 0 0-.4 2.409l.035.605c-3.062.003-5.314.661-5.41.693l-.093.028-2.486 3.019-.016.06c-.146.49-.261.987-.344 1.49h-.008l-.176.044a1.447 1.447 0 0 0-1.012 1.579l.027.159.028.148.06.292.094.466c-.345.076-.69.154-1.034.238a.357.357 0 0 0-.215.154.341.341 0 0 0 .374.506c.336-.082.672-.16 1.009-.233l.025.128a10.4 10.4 0 0 0 .506 7.55C8.47 24.608 11.94 28.078 16 28.078c4.059 0 7.53-3.47 9.042-6.693a10.405 10.405 0 0 0 .495-7.552l.024-.118c.338.074.676.152 1.013.234a.341.341 0 0 0 .374-.506l.002-.003zM15.112 3.298a.982.982 0 0 1 .968-.979c.54 0 .54 1.952 0 1.958a.982.982 0 0 1-.968-.979zm.648 1.21c.079.015.158.023.238.023h.038l.076 2.102a.339.339 0 0 1-.032.444.341.341 0 0 1-.242.1c-.506 0-.913-.154-.913-.34 0-.172.342-.315.79-.339l.123-.003h.034l-.112-1.987zM8.156 9.345l.291-.104.495-.165.65-.192c.236-.072.5-.138.775-.21l.874-.197c.303-.06.616-.127.94-.182.325-.055.65-.099.98-.154.33-.055.66-.082.984-.12.325-.04.644-.056.957-.083.165-.015.334-.022.495-.028h.017l.385 3.427.39-3.456h.418c.248 0 .479-.011.682 0l.528.022.462.016-.456-.044-.528-.05c-.204-.021-.43-.027-.682-.043a12.232 12.232 0 0 0-.809-.033H16c-.284 0-.59-.017-.902-.006-.311.011-.638.006-.968.028l-1.001.066c-.336.027-.671.055-1.001.099-.33.044-.655.093-.963.132-.297.037-.59.094-.866.143l-.492-.039.979-1.336 4.889-1.066.03.53c-.66.052-1.155.271-1.155.534 0 .3.65.544 1.452.544.802 0 1.452-.243 1.452-.544 0-.263-.495-.482-1.155-.534l.03-.528 4.868 1.063.98 1.336-1.362.11-.025-.003.015.004h-.02l2.607 1.292s1.124 3.61-.425 6.678a6.92 6.92 0 0 1-.615.99s-2.406 1.111-6.105 1.307L16 17.532a2.2 2.2 0 0 0 .885-.154l.77-.253c1.564-.482 3.13-.957 4.697-1.425l.154-.043.05-.143.05-.143.038-.138.071-.27c.126-.53.216-1.068.27-1.611l.044-.55.01-.275v-.28l.006-.287-.027-.286-.044-.285a2.53 2.53 0 0 0-.072-.275l-.044-.144-.05-.17-.035-.005-.014-.044-.05-.171-.197-.027a51.61 51.61 0 0 0-4.89-.336l-.17-.006-.072.143-.896 1.757-.484.008-.53.01-.96-1.72-.05-.093-.1.005c-.813.046-1.625.112-2.436.199a37.84 37.84 0 0 0-2.414.335h.016-.01l-.034.11a1.367 1.367 0 0 0-.024.086c.016-.065.035-.129.055-.196a2.416 2.416 0 0 1-.11.258c-.018.07-.038.14-.051.21l-.01.027-.06.27-.044.269-.028.275a6.118 6.118 0 0 0-.01.55l.021.55c.037.55.11 1.098.22 1.639l.06.27.078.274.022.067.077.027 3.113 1.023c.916.298 1.831.605 2.744.919.078.016.157.027.237.032l.055.006h.016l.028.005.115.006h.017l-.254 1.035a20.88 20.88 0 0 1-2.72-.098c-2.222-.298-3.684-.83-4.064-.981a11.786 11.786 0 0 1-.808-8.143zm11.8 1.53l-2.941 5.545-.197.37-.143.049a1.767 1.767 0 0 1-.533.105 1.908 1.908 0 0 1-.825-.1l-.1-.038.126-.235 3.08-5.8.139-.263c.5.023 1.012.061 1.534.105l-.14.262zm.904.09l.144-.272.423.039.402.044.05.005h.032l-.148.28-2.44 4.598-.2.377-1.144.363.197-.373 2.684-5.061zm-14.35 1.27l-.016-.148-.011-.143a.984.984 0 0 1 .719-1.014 12.129 12.129 0 0 0 .42 4.873l-.045-.014a1.155 1.155 0 0 1-.704-.704 1.862 1.862 0 0 1-.082-.424l-.248-2.126-.033-.3zm2.754 11.453l-.015-.012.007.01a.366.366 0 0 1-.15-.082 12.468 12.468 0 0 1-1.562-2.489 9.755 9.755 0 0 1-.76-5.911l.004.01a1.254 1.254 0 0 0 .85.644c.213.702.489 1.383.825 2.035l.05.088.093.044c.352.144.711.27 1.076.379h.008l-.025.008a3.25 3.25 0 0 0-.24.091 4.841 4.841 0 0 0-.195.087l-.424.203-.137.066-.017.138a7.425 7.425 0 0 0 .306 3.108c.155.499.373.976.649 1.42l.005.01.017.044c.024.111-.191.156-.365.11zm3.78 2.212a6.01 6.01 0 0 1-2.079-1.291 4.95 4.95 0 0 1-.863-1.129 5.709 5.709 0 0 1-.528-1.32 7.205 7.205 0 0 1-.215-1.408 6.105 6.105 0 0 1 .039-1.25l.258-.103c.265-.087.533-.164.803-.23l.413-.083c.357-.06.716-.103 1.078-.127h.043l.016.002a7.518 7.518 0 0 0-.46 2.63c0 1.79.59 3.313 1.527 4.328l-.032-.019zm4.3-1.143a2.714 2.714 0 0 1-1.358.352 2.72 2.72 0 0 1-1.408-.385 3.37 3.37 0 0 1-.512-.727 2.536 2.536 0 0 0 3.782.067 3.282 3.282 0 0 1-.504.694v-.001zm-1.358-.418a1.96 1.96 0 0 1-1.969-1.952v-.007a1.96 1.96 0 1 1 1.97 1.958v.001zM18.474 22a2.523 2.523 0 0 0-4.988.084 6.816 6.816 0 0 1-.055-.683 2.729 2.729 0 0 1 2.557-1.733h.01a2.729 2.729 0 0 1 2.527 1.683 6.924 6.924 0 0 1-.051.65zm.432 3.931h.01l-.02.007c.95-1.016 1.55-2.549 1.55-4.353a7.477 7.477 0 0 0-.461-2.63h.014c1.415.204 2.152.93 2.152.93s.15 4.146-3.243 6.046h-.002zm6.463-8.94v.214c0 .049-.004.097-.005.145a6.913 6.913 0 0 1-.018.328c0 .034-.006.069-.009.103-.006.071-.012.142-.02.213 0 .016-.003.032-.005.048a9.836 9.836 0 0 1-.025.206v.01l-.028.198v.007a9.731 9.731 0 0 1-.958 2.96l-.034.066c-.035.067-.07.135-.107.202a12.313 12.313 0 0 1-1.27 1.915.343.343 0 0 1-.144.082l.006-.011-.014.013c-.174.05-.395.007-.37-.11l.016-.044.01-.01c.273-.446.49-.922.645-1.42a7.535 7.535 0 0 0 .302-3.102l-.016-.137-.138-.066c-.143-.072-.28-.143-.423-.204l-.435-.176-.039-.014.01-.003c.363-.107.72-.235 1.069-.381l.093-.044.05-.088c.335-.652.61-1.332.822-2.032.375-.077.695-.317.873-.655.105.562.16 1.133.165 1.705a1.343 1.343 0 0 0-.003.082zM9.646 11.135l.231-.28h.077-.115c-.116.17-.258.333-.385.5.073-.074.13-.143.192-.22zM16.95 6.21c.484.127.803.358.803.627 0 .27-.324.5-.803.627.66-.06 1.155-.319 1.155-.627s-.495-.569-1.155-.627zm-1.59 2.472a.254.254 0 0 0 .254-.25.253.253 0 0 0-.075-.18.244.244 0 0 0-.18-.07.248.248 0 0 0-.245.25c0 .138.11.25.246.25zm-6.645.842a.252.252 0 0 0-.176.43c.047.047.11.072.176.07a.252.252 0 0 0 .176-.43.237.237 0 0 0-.176-.07zm.693 8.073a.252.252 0 0 0 .176-.43.237.237 0 0 0-.176-.07.252.252 0 0 0-.25.25c.005.14.115.25.25.25zm6.072.957a.252.252 0 0 0 .176-.43.237.237 0 0 0-.176-.07.255.255 0 0 0-.25.255.263.263 0 0 0 .25.245zm1.365-9.867a.254.254 0 0 0 .254-.25.253.253 0 0 0-.075-.18.244.244 0 0 0-.18-.07.248.248 0 0 0-.245.25c0 .139.11.25.246.25zm-.122 9.373a.254.254 0 0 0-.25.25c.01.137.117.245.25.25a.252.252 0 0 0 .176-.43.237.237 0 0 0-.176-.07zm-6.777 1.683a.232.232 0 0 0-.218.116.263.263 0 0 0-.006.258c.044.08.126.129.214.125h.01a.25.25 0 0 0 .245-.25.25.25 0 0 0-.066-.172.242.242 0 0 0-.18-.077zm1.509-.45a.248.248 0 0 0-.246.249c0 .138.11.25.246.25a.254.254 0 0 0 .254-.25.253.253 0 0 0-.075-.18.244.244 0 0 0-.18-.07zm9.295 0a.25.25 0 1 0 .02.499.25.25 0 0 0-.02-.5z"/></svg>
